X:112
T:Hogmany Strathspey
S:One of Nathaniel Gow's single sheets
Z:Nigel Gatherer
M:4/4
L:1/8
K:G
D|G>GDB, DGDB,|E<AAG GFED|G>GDB, DGDB,|E<A G/F/E/F/ G3:|
B/C/|d>dBG BdBG|ceag gfed|g>geB egeB|gfe^d e3 e/f/|
ggff e>ed>d|caBg A>GFD|G>GDB, DGDB,|E<AGF G3|]
<end>
<start>
